svgs/geometric_weather.svg

<svg width="192" height="192" viewBox="0 0 192 192" fill="none" xmlns="http://www.w3.org/2000/svg">
<g clip-path="url(#clip0_135_6)">
<path fill-rule="evenodd" clip-rule="evenodd" d="M122.323 62.9463C122.144 62.8224 121.967 62.6931 121.792 62.5585C117.724 59.4198 112.996 56.9721 107.712 55.4417C102.39 53.9057 97.0411 53.4622 91.8907 53.9695C91.675 53.9907 91.4598 54.0061 91.2453 54.0158C91.0317 54.0551 90.8158 54.0889 90.5981 54.117C79.9646 55.4905 70.1797 60.907 63.3752 69.1883C63.2311 69.3636 63.083 69.534 62.931 69.6993C62.8121 69.8715 62.6882 70.0415 62.5593 70.2089C59.4205 74.2877 56.9732 79.0097 55.4444 84.2885C53.9073 89.6246 53.4646 94.9747 53.9716 100.122C53.9934 100.344 54.0091 100.565 54.0188 100.784C54.0849 101.144 54.1348 101.506 54.1683 101.871C55.6441 112.33 61.0339 121.938 69.2017 128.65C69.3363 128.76 69.468 128.873 69.5968 128.988C69.8127 129.134 70.0252 129.288 70.2339 129.449C74.173 132.496 78.7494 134.894 83.8613 136.431C84.0065 136.467 84.1515 136.507 84.296 136.548C89.6253 138.091 94.9733 138.529 100.149 138.019C100.378 137.997 100.604 137.981 100.831 137.972C101.022 137.937 101.213 137.908 101.406 137.884C112.036 136.51 121.833 131.086 128.652 122.789C128.779 122.636 128.907 122.487 129.039 122.341C129.165 122.158 129.296 121.978 129.433 121.801C132.579 117.724 135.033 112.994 136.561 107.711L136.563 107.702C138.104 102.387 138.542 97.0309 138.033 91.8662C138.013 91.6653 137.998 91.465 137.989 91.2653C137.949 91.0475 137.914 90.8275 137.885 90.6056C136.512 79.9679 131.088 70.1783 122.797 63.3569C122.635 63.2235 122.477 63.0865 122.323 62.9463ZM148.571 137.835L169.742 126.105C175.609 122.854 177.732 115.463 174.483 109.596L162.755 88.4126L169.432 65.1504C171.284 58.7023 167.558 51.9743 161.109 50.1225L137.838 43.4395L126.108 22.2623C124.547 19.4434 121.93 17.3604 118.833 16.4715C115.736 15.5825 112.412 15.9605 109.594 17.5222L88.4209 29.2543L65.1553 22.5704C62.0579 21.6805 58.7339 22.0579 55.9148 23.6193C53.0957 25.1809 51.0126 27.7985 50.1238 30.8962L43.448 54.167L22.2624 65.9061C16.3939 69.1578 14.2727 76.5512 17.5245 82.4197L29.2566 103.593L22.5726 126.858C21.6829 129.955 22.06 133.279 23.6208 136.097C25.1816 138.916 27.7983 141 30.8953 141.888L54.1875 148.578L65.9072 169.738C67.4684 172.556 70.0854 174.64 73.1826 175.529C76.2798 176.417 79.6032 176.04 82.4217 174.478L103.59 162.75L126.864 169.43C133.312 171.282 140.04 167.554 141.892 161.106L148.571 137.835ZM130.215 157.754L138.038 130.502C135.792 133.234 133.297 135.724 130.597 137.947C128.264 139.868 125.778 141.588 123.169 143.093C122.626 143.406 122.077 143.711 121.523 144.005C118.863 145.42 116.085 146.615 113.219 147.575C109.903 148.684 106.469 149.478 102.963 149.932L130.215 157.754ZM101.338 150.109C98.555 150.383 95.7331 150.444 92.8925 150.279C92.2013 150.238 91.509 150.185 90.8157 150.117C87.8564 149.83 84.8822 149.295 81.916 148.496C81.5963 148.41 81.2767 148.321 80.9571 148.229C80.9452 148.225 80.9334 148.222 80.9215 148.219C80.9205 148.218 80.9196 148.218 80.9186 148.218V148.229C80.9176 148.229 80.9166 148.228 80.9156 148.228C80.9038 148.225 80.892 148.221 80.8801 148.218C80.6205 148.142 80.3617 148.065 80.1041 147.986C77.1651 147.087 74.3556 145.961 71.6905 144.633C71.0141 144.296 70.3469 143.946 69.6894 143.582C67.2593 142.242 64.9596 140.727 62.8025 139.059L76.5342 163.852L101.338 150.109ZM28.1503 76.5319L41.8821 101.314C41.5428 97.8697 41.5333 94.3634 41.8751 90.8362C42.1625 87.8699 42.6982 84.8887 43.4952 81.9175C43.5848 81.5836 43.6777 81.2499 43.7738 80.9162C43.8528 80.6435 43.9337 80.3718 44.0165 80.1012C44.9184 77.1545 46.0478 74.3398 47.3798 71.6692C48.959 68.5033 50.8235 65.5401 52.9321 62.8001L28.1503 76.5319ZM34.2483 130.212L61.4894 138.036C58.7653 135.797 56.2819 133.31 54.0643 130.619C52.1397 128.285 50.4153 125.795 48.9074 123.184C48.5902 122.634 48.2826 122.079 47.9848 121.518C46.5673 118.853 45.3702 116.069 44.4097 113.196C43.3144 109.921 42.5268 106.531 42.0713 103.068C42.0687 103.048 42.0661 103.029 42.0636 103.01L42.0713 102.983H42.0602L42.0636 103.01L34.2483 130.212ZM129.213 52.9409C126.468 50.8225 123.495 48.9522 120.32 47.3697C117.654 46.0415 114.846 44.916 111.908 44.0165C111.635 43.9329 111.362 43.8512 111.086 43.7716C110.756 43.6763 110.425 43.5842 110.095 43.4953C107.13 42.6983 104.153 42.1622 101.189 41.8741C97.6586 41.5312 94.148 41.5403 90.6999 41.8799L115.482 28.1481L129.213 52.9409ZM53.9892 61.476C56.2212 58.7598 58.7003 56.2835 61.3823 54.072C63.7213 52.1431 66.2146 50.4156 68.8325 48.9057C69.3823 48.5886 69.9375 48.2811 70.4981 47.9834C73.1634 46.5675 75.9467 45.3722 78.8186 44.4136C82.1203 43.3115 85.5392 42.5222 89.0304 42.0705C89.0305 42.0705 89.0302 42.0705 89.0304 42.0705C89.034 42.07 89.0382 42.0695 89.0419 42.069H89.0308L61.801 34.2462L53.9892 61.476ZM137.937 61.3954C135.72 58.7041 133.238 56.216 130.515 53.9758L157.756 61.7987L149.934 89.0508C149.481 85.5441 148.688 82.111 147.579 78.7962C146.62 75.9293 145.425 73.1511 144.011 70.4904C143.716 69.935 143.411 69.3847 143.096 68.8397C141.588 66.2243 139.863 63.7332 137.937 61.3954ZM139.05 129.222C141.174 126.471 143.052 123.49 144.639 120.303C145.965 117.642 147.09 114.837 147.988 111.901C148.071 111.63 148.152 111.357 148.231 111.084C148.326 110.754 148.419 110.424 148.507 110.094C149.307 107.132 149.843 104.158 150.13 101.198C150.474 97.6544 150.463 94.132 150.123 90.6754L163.854 115.48L139.05 129.222Z" fill="black"/>
</g>
<defs>
<clipPath id="clip0_135_6">
<rect width="192" height="192" fill="white"/>
</clipPath>
</defs>
</svg>

<svg width="192" height="192" fill="none" xmlns="http://www.w3.org/2000/svg"><g clip-path="url(#a)"><path fill-rule="evenodd" clip-rule="evenodd" d="M122.323 62.946a13.103 13.103 0 0 1-.531-.387c-4.068-3.14-8.796-5.587-14.08-7.117a42.059 42.059 0 0 0-15.821-1.473c-.216.022-.431.037-.646.047-.213.04-.43.073-.647.101a42.345 42.345 0 0 0-27.223 15.071c-.144.176-.292.346-.444.511a12.16 12.16 0 0 1-.372.51 42.294 42.294 0 0 0-7.115 14.08c-1.537 5.336-1.98 10.686-1.472 15.833.021.222.037.443.047.662.066.36.116.722.15 1.087a42.427 42.427 0 0 0 15.033 26.779c.134.11.266.223.395.338.216.146.428.3.637.461 3.939 3.047 8.515 5.445 13.627 6.982.145.036.29.076.435.117a41.992 41.992 0 0 0 15.853 1.471c.229-.022.455-.038.682-.047.191-.035.382-.064.575-.088a42.405 42.405 0 0 0 27.246-15.095c.127-.153.255-.302.387-.448.126-.183.257-.363.394-.54a42.165 42.165 0 0 0 7.128-14.09l.002-.009a41.957 41.957 0 0 0 1.47-15.836c-.02-.2-.035-.401-.044-.6-.04-.219-.075-.439-.104-.66-1.373-10.638-6.797-20.428-15.088-27.25-.162-.133-.32-.27-.474-.41Zm26.248 74.889 21.171-11.73c5.867-3.251 7.99-10.642 4.741-16.509l-11.728-21.183 6.677-23.263c1.852-6.448-1.874-13.176-8.323-15.028l-23.271-6.682-11.73-21.178a12.146 12.146 0 0 0-16.514-4.74L88.421 29.254 65.155 22.57a12.148 12.148 0 0 0-15.031 8.326l-6.676 23.271-21.186 11.74c-5.868 3.25-7.99 10.644-4.738 16.513l11.733 21.173-6.684 23.265a12.148 12.148 0 0 0 8.322 15.03l23.293 6.69 11.72 21.16a12.151 12.151 0 0 0 16.514 4.74l21.168-11.728 23.274 6.68c6.448 1.852 13.176-1.876 15.028-8.324l6.679-23.271Zm-18.356 19.919 7.823-27.252a54.365 54.365 0 0 1-7.441 7.445 54.626 54.626 0 0 1-17.378 9.628 54.34 54.34 0 0 1-10.256 2.357l27.252 7.822Zm-28.877-7.645a54.13 54.13 0 0 1-20.416-1.89l-.003-.001v.011l-.003-.001-.036-.01a54.787 54.787 0 0 1-11.19-4.636 53.446 53.446 0 0 1-6.887-4.523l13.731 24.793 24.804-13.743ZM28.15 76.532l13.732 24.782a53.85 53.85 0 0 1-.007-10.478 54.812 54.812 0 0 1 2.142-10.735 54.835 54.835 0 0 1 3.363-8.432 54.216 54.216 0 0 1 5.552-8.869L28.15 76.532Zm6.098 53.68 27.241 7.824a54.299 54.299 0 0 1-7.425-7.417 54.646 54.646 0 0 1-9.654-17.423 54.226 54.226 0 0 1-2.339-10.128l-.007-.058.007-.027h-.01l.003.027-7.816 27.202Zm94.965-77.271a53.916 53.916 0 0 0-8.893-5.571 54.876 54.876 0 0 0-10.225-3.875 54.667 54.667 0 0 0-8.906-1.62 53.857 53.857 0 0 0-10.49.005l24.783-13.732 13.731 24.793Zm-75.224 8.535a54.185 54.185 0 0 1 7.393-7.404A54.539 54.539 0 0 1 89.03 42.07l.012-.001h-.011L61.8 34.246l-7.812 27.23Zm83.948-.08a54.373 54.373 0 0 0-7.422-7.42l27.241 7.823-7.822 27.252a54.21 54.21 0 0 0-2.355-10.255 54.632 54.632 0 0 0-9.642-17.4Zm1.113 67.826a53.915 53.915 0 0 0 5.589-8.919 54.695 54.695 0 0 0 3.868-10.209 54.14 54.14 0 0 0 1.616-19.419l13.731 24.805-24.804 13.742Z" fill="#000"/></g><defs><clipPath id="a"><path fill="#fff" d="M0 0h192v192H0z"/></clipPath></defs></svg>
